Newaita-dark/actions/32/favorite-genres-amarok.svg

<svg height="32" viewBox="0 0 32 32" width="32" xmlns="http://www.w3.org/2000/svg"><g fill="#e0e0e0"><path d="m15.875 2.902344c-.496094 0-.945312.277344-1.171875.714844l-3.667969 7.167968-7.949218 1.277344c-.488282.078125-.890626.421875-1.042969.890625-.152344.472656-.03125.988281.316406 1.335937l5.683594 5.707032-1.242188 7.953125c-.078125.488281.125.980469.523438 1.269531.402343.289062.929687.332031 1.371093.109375l7.179688-3.640625 7.183594 3.640625c.441406.222656.96875.179687 1.367187-.109375.402344-.289062.605469-.78125.527344-1.269531l-1.242187-7.953125 5.679687-5.707032c.351563-.347656.472656-.863281.320313-1.335937-.152344-.46875-.554688-.8125-1.042969-.890625l-7.949219-1.277344-3.671875-7.167968c-.222656-.4375-.679687-.714844-1.171875-.714844zm0 4.207031 2.804688 5.472656c.1875.371094.546874.632813.960937.699219l6.070313.972656-4.339844 4.355469c-.292969.296875-.429688.71875-.367188 1.132813l.949219 6.074218-5.480469-2.78125c-.375-.191406-.816406-.191406-1.191406 0l-5.484375 2.78125.953125-6.074218c.0625-.414063-.074219-.835938-.371094-1.132813l-4.335937-4.355469 6.070312-.972656c.414063-.066406.769531-.328125.960938-.699219zm0 0"/><path d="m16.867188 13.457031c-.367188.011719-.660157.316407-.660157.683594v2.941406c-.382812-.1875-.824219-.292969-1.296875-.292969-1.46875 0-2.648437 1.03125-2.648437 2.3125 0 1.285157 1.179687 2.316407 2.648437 2.316407 1.375 0 2.5-.910157 2.632813-2.082031.023437-.074219.039062-.152344.035156-.234376v-3.851562l.992187.496094c.21875.117187.484376.101562.691407-.03125.207031-.136719.324219-.375.308593-.621094-.015624-.246094-.164062-.464844-.386718-.574219l-1.984375-.992187c-.101563-.050782-.214844-.074219-.332031-.070313zm-1.957032 4.652344c.644532 0 1.179688.34375 1.296875.804687v.1875c0 .046876.003907.09375.011719.140626-.089844.484374-.640625.851562-1.308594.851562-.734375 0-1.324218-.441406-1.324218-.992188 0-.546874.589843-.992187 1.324218-.992187zm0 0"/></g></svg>

<svg xmlns="http://www.w3.org/2000/svg" xmlns:xlink="http://www.w3.org/1999/xlink" width="32px" height="32px" viewBox="0 0 32 32" version="1.1">
<g id="surface1">
     <defs>
  <style id="current-color-scheme" type="text/css">
   .ColorScheme-Text { color:#eeeeee; } .ColorScheme-Highlight { color:#424242; }
  </style>
 </defs>
<path style="fill:currentColor" class="ColorScheme-Text" d="M 15.875 2.902344 C 15.378906 2.902344 14.929688 3.179688 14.703125 3.617188 L 11.035156 10.785156 L 3.085938 12.0625 C 2.597656 12.140625 2.195312 12.484375 2.042969 12.953125 C 1.890625 13.425781 2.011719 13.941406 2.359375 14.289062 L 8.042969 19.996094 L 6.800781 27.949219 C 6.722656 28.4375 6.925781 28.929688 7.324219 29.21875 C 7.726562 29.507812 8.253906 29.550781 8.695312 29.328125 L 15.875 25.6875 L 23.058594 29.328125 C 23.5 29.550781 24.027344 29.507812 24.425781 29.21875 C 24.828125 28.929688 25.03125 28.4375 24.953125 27.949219 L 23.710938 19.996094 L 29.390625 14.289062 C 29.742188 13.941406 29.863281 13.425781 29.710938 12.953125 C 29.558594 12.484375 29.15625 12.140625 28.667969 12.0625 L 20.71875 10.785156 L 17.046875 3.617188 C 16.824219 3.179688 16.367188 2.902344 15.875 2.902344 Z M 15.875 7.109375 L 18.679688 12.582031 C 18.867188 12.953125 19.226562 13.214844 19.640625 13.28125 L 25.710938 14.253906 L 21.371094 18.609375 C 21.078125 18.90625 20.941406 19.328125 21.003906 19.742188 L 21.953125 25.816406 L 16.472656 23.035156 C 16.097656 22.84375 15.65625 22.84375 15.28125 23.035156 L 9.796875 25.816406 L 10.75 19.742188 C 10.8125 19.328125 10.675781 18.90625 10.378906 18.609375 L 6.042969 14.253906 L 12.113281 13.28125 C 12.527344 13.214844 12.882812 12.953125 13.074219 12.582031 Z M 15.875 7.109375 "/>
     <defs>
  <style id="current-color-scheme" type="text/css">
   .ColorScheme-Text { color:#eeeeee; } .ColorScheme-Highlight { color:#424242; }
  </style>
 </defs>
<path style="fill:currentColor" class="ColorScheme-Text" d="M 16.867188 13.457031 C 16.5 13.46875 16.207031 13.773438 16.207031 14.140625 L 16.207031 17.082031 C 15.824219 16.894531 15.382812 16.789062 14.910156 16.789062 C 13.441406 16.789062 12.261719 17.820312 12.261719 19.101562 C 12.261719 20.386719 13.441406 21.417969 14.910156 21.417969 C 16.285156 21.417969 17.410156 20.507812 17.542969 19.335938 C 17.566406 19.261719 17.582031 19.183594 17.578125 19.101562 L 17.578125 15.25 L 18.570312 15.746094 C 18.789062 15.863281 19.054688 15.847656 19.261719 15.714844 C 19.46875 15.578125 19.585938 15.339844 19.570312 15.09375 C 19.554688 14.847656 19.40625 14.628906 19.183594 14.519531 L 17.199219 13.527344 C 17.097656 13.476562 16.984375 13.453125 16.867188 13.457031 Z M 14.910156 18.109375 C 15.554688 18.109375 16.089844 18.453125 16.207031 18.914062 L 16.207031 19.101562 C 16.207031 19.148438 16.210938 19.195312 16.21875 19.242188 C 16.128906 19.726562 15.578125 20.09375 14.910156 20.09375 C 14.175781 20.09375 13.585938 19.652344 13.585938 19.101562 C 13.585938 18.554688 14.175781 18.109375 14.910156 18.109375 Z M 14.910156 18.109375 "/>
</g>
</svg>
